public/svgs/duotone/square-r.svg

<svg xmlns="http://www.w3.org/2000/svg" viewBox="0 0 448 512"><!-- Font Awesome Pro 6.0.0-alpha2 by @fontawesome - https://fontawesome.com License - https://fontawesome.com/license (Commercial License) --><defs><style>.fa-secondary{opacity:.4}</style></defs><path d="M256 176H176V240H256C273.656 240 288 225.641 288 208S273.656 176 256 176ZM384 32H64C28.654 32 0 60.654 0 96V416C0 451.346 28.654 480 64 480H384C419.346 480 448 451.346 448 416V96C448 60.654 419.346 32 384 32ZM323.406 345.891C331.219 356.609 328.844 371.609 318.125 379.406C313.844 382.516 308.906 384 304.031 384C296.594 384 289.281 380.578 284.594 374.109L221.969 288H176V360C176 373.25 165.25 384 152 384S128 373.25 128 360V152C128 138.75 138.75 128 152 128H256C300.125 128 336 163.891 336 208C336 244.195 311.688 274.5 278.641 284.338L323.406 345.891Z" class="fa-secondary"/><path d="M336 208C336 163.891 300.125 128 256 128H152C138.75 128 128 138.75 128 152V360C128 373.25 138.75 384 152 384S176 373.25 176 360V288H221.969L284.594 374.109C289.281 380.578 296.594 384 304.031 384C308.906 384 313.844 382.516 318.125 379.406C328.844 371.609 331.219 356.609 323.406 345.891L278.641 284.338C311.688 274.5 336 244.195 336 208ZM256 240H176V176H256C273.656 176 288 190.359 288 208S273.656 240 256 240Z" class="fa-primary"/></svg>

<svg xmlns="http://www.w3.org/2000/svg" viewBox="0 0 448 512"><!--! Font Awesome Pro 6.5.1 by @fontawesome - https://fontawesome.com License - https://fontawesome.com/license (Commercial License) Copyright 2023 Fonticons, Inc. --><defs><style>.fa-secondary{opacity:.4}</style></defs><path class="fa-secondary" d="M64 32C28.7 32 0 60.7 0 96V416c0 35.3 28.7 64 64 64H384c35.3 0 64-28.7 64-64V96c0-35.3-28.7-64-64-64H64zm88 96H256c44.2 0 80 35.8 80 80c0 36.6-24.6 67.5-58.2 77l45.4 60.6c8 10.6 5.8 25.6-4.8 33.6s-25.6 5.8-33.6-4.8L220 288H176v72c0 13.3-10.7 24-24 24s-24-10.7-24-24V264 152c0-13.3 10.7-24 24-24zm80 112h24c17.7 0 32-14.3 32-32s-14.3-32-32-32H176v64h56z"/><path class="fa-primary" d="M128 152c0-13.3 10.7-24 24-24H256c44.2 0 80 35.8 80 80c0 36.6-24.6 67.5-58.2 77l45.4 60.6c8 10.6 5.8 25.6-4.8 33.6s-25.6 5.8-33.6-4.8L220 288H176v72c0 13.3-10.7 24-24 24s-24-10.7-24-24V264 152zm48 88h56 24c17.7 0 32-14.3 32-32s-14.3-32-32-32H176v64z"/></svg>
